X: 11
T: Paston's Maggot
R: reel
M: C|
L: 1/8
Z: 2011 John Chambers <jc:trillian.mit.edu>
B: Andrew Shaw "Mr Kynaston's Famous Dance" p.11
P: Play ABAB x 3
K: D
%
"A"|: "D"D2D2 "A"F2A2 | "Bm"d4 "A"A2Bc | "D"d2F2 E2D2 | "A"E4 A,4 | "D"D2D2 "A"F2A2 |
"Bm"d4 "A"A2Bc | "Bm"d2f2 "A"(af)(af) |1 "D"d2A2 F2EF :|2 "D"d2A2 F2D2 |]
"B"|: "D"d2f2 (af)(af) | "Bm"(df)(af) d2A2 | "A"c2e2 (ge)(ge) | "A"(ce)(ge) c2A2 |
"D"(df)(ag) "A"(ce)(ge) | "D"(df)(af) "A"(ce) (a>g) | "G"f2ed "A"cdec | "D"d2A2 F2D2 :|
